X:20
T:Sourgrass and Granite
R:Waltz
C:Brian Pickell
S:Denis Sprott via Pierre Schryer CD
Z:Alf Warnock - alf0@rogers.com - http://members.rogers.com/alf0
M:3/4
L:1/8
K:D
FE|DA, DF Ad|c3d eg|f2 d2 A2|B3G D2|B2 Bc d2|F2  FG A2|1
Bc dG F2|E3G :|2 Bc dF E2|D3c de|:fB Bc d2|eA AB c2|d2 c2 B2|
A3 FD2|B2 BA FA|D3F Ad|1 f2 fe df|e3c de:|2 f2 fe dc|d6 |]
